X:1
T:Dwell in Me, O Blessèd Spirit
T:Dwell in Me, O Blessèd Spirit
T:Georgia Guiney Berkey
T:Frances Jane (Fanny) Crosby, 1899
T:Public Domain Courtesy of the Cyber Hymnal™
C:Georgia Guiney Berkey
Z:Public Domain
Z:Courtesy of the Cyber Hymnal™
%%score ( 1 2 ) 3
L:1/8
Q:1/4=95
M:3/4
K:C
V:1 treble 
V:2 treble 
V:3 bass 
V:1
 [CE][DF] | [EG]3 [FA] [EG][Gc] | [Fc]2 [FB]2 [FB][Fc] | [Fd]3 [FB] [FA]>[FB] | [Ec]4 [Ec][Gc] | %5
w: 1.~Dwell in|me, O bless- èd|Spir- it, How I|need Thy help di-|vine! In the|
w: 2.~Let me|feel Thy sac- red|pre- sence; Then my|faith will ne’er de-|cline; Com- fort|
w: 3.~Round the|cross where Thou hast|led me, Let my|pur- est feel- ings|twine; With the|
w: 4.~Dwell in|me, O bless- èd|Spir- it, Gra- cious|teach- er, friend di-|vine, For the|
 [Ac]3 [Ac] [GB][FA] | [EG]2 [CE]2 [CE][CE] | [B,G]3 [B,F] [B,E][B,D] | C4 ||"^Refrain" [Ec][Gc] | %10
w: way of life e-|ter- nal, Keep, oh,|keep this heart of|mine.||
w: Thou and help me|on- ward, Fill with|love this heart of|mine.|Dwell in|
w: blood from sin that|cleansed me, Seal a-|new this heart of|mine.||
w: home of bliss that|waits me O pre-|pare this heart of|mine.||
 [Ac]3 [Ac] [GB][FA] | [EG]4 [EG][EG] | [DG]3 [FG] [EG][DG] | [EG]4 [CE][DF] | %14
w: ||||
w: me, oh, dwell in|me; Hear and|grant my prayer to|Thee; Spir- it,|
w: ||||
w: ||||
 [EG]3 [FA] [EG][Ge] | [Fd]2 [FA]2 [FB][FA] | [FG]3 [FA] [FB][Fd] | [Ec]4 |] %18
w: ||||
w: now from Heav’n de-|scend- ing, Come, oh,|come and dwell in|me.|
w: ||||
w: ||||
V:2
 x2 | x6 | x6 | x6 | x6 | x6 | x6 | x6 | C4 || x2 | x6 | x6 | x6 | x6 | x6 | x6 | x6 | x4 |] %18
V:3
 [C,G,][C,G,] | [C,C]3 [C,C] [C,C][E,G,] | [D,G,]2 [D,G,]2 [D,G,][C,G,] | %3
 [B,,G,]3 [G,,G,] [G,,G,]>[G,,G,] | [C,G,]4 [C,G,][E,C] | [F,C]3 [F,C] [F,C][F,C] | %6
 [C,C]2 [C,G,]2 [C,G,][C,G,] | [G,,G,]3 [G,,G,] [G,,G,][G,,F,] | [C,E,]4 || [C,G,][E,C] | %10
 [F,C]3 [F,C] [F,C][F,C] | [C,C]4 [C,C][C,C] | [G,,B,]3 [G,,D] [G,,D][G,,D] | [C,C]4 [C,G,][C,G,] | %14
 [C,C]3 [C,C] [C,C][C,C] | [F,A,]2 [F,D]2 [G,D][G,C] | [G,B,]3 [G,C] [G,D][G,B,] | [C,C]4 |] %18

